X: 52
T:Old Joe Clark 2
% Nottingham Music Database
S:Otto Woods, via EF
M:4/4
L:1/4
K:A
P:A
e|"A"ee a=g|"A"e/2f/2e/2d/2 c/2A/2c/2d/2|"A"ee a=g|"G"e3/2d/2 cd|
"A"ee a=g|"A"e/2f/2e/2d/2 c/2A/2e/2d/2|"A"c/2B/2A/2c/2 "G"B/2A/2=G/2B/2|"A"A3\
:|
P:B
G/2F/2|"A"E3/2E/2 A3/2A/2|"A"ed cB|"A"AA3/2A/2=G|"G"E3/2D/2 CD|
"A"E3/2E/2 A3/2A/2|"A"ed c/2d/2e/2d/2|"A"c/2B/2A/2c/2 "G"B/2A/2=G/2B/2|"A"A3:|<end>
<start>
